static/logos/metamask-glyph-color.svg

<svg width="50" height="48" viewBox="0 0 50 48" fill="none" xmlns="http://www.w3.org/2000/svg">
<path d="M47.0839 1.42856L28.3125 15.3143L31.8125 7.12856L47.0839 1.42856Z" fill="#E17726" stroke="#E17726" stroke-width="0.25" stroke-linecap="round" stroke-linejoin="round"/>
<path d="M3.79821 1.42856L22.3982 15.4286L19.0696 7.14284L3.79821 1.42856ZM40.3268 33.6143L35.3268 41.2428L46.0268 44.1857L49.0839 33.7857L40.3268 33.6143ZM1.8125 33.7857L4.85536 44.1857L15.5268 41.2428L10.5554 33.6143L1.8125 33.7857Z" fill="#E27625" stroke="#E27625" stroke-width="0.25" stroke-linecap="round" stroke-linejoin="round"/>
<path d="M14.9558 20.7284L11.9844 25.2142L22.5558 25.6999L22.213 14.3142L14.9558 20.7427V20.7284ZM35.9272 20.7427L28.5558 14.1713L28.313 25.6999L38.8844 25.2142L35.9272 20.7427ZM15.5272 41.2427L21.9415 38.157L16.4272 33.8713L15.5272 41.2427ZM28.9558 38.1427L35.3272 41.2427L34.4701 33.857L28.9558 38.1427Z" fill="#E27625" stroke="#E27625" stroke-width="0.25" stroke-linecap="round" stroke-linejoin="round"/>
<path d="M35.3313 41.2429L28.9598 38.1571L29.4741 42.3L29.417 44.0571L35.3313 41.2429ZM15.5312 41.2429L21.4741 44.0571L21.4313 42.3L21.9455 38.1571L15.5312 41.2429Z" fill="#D5BFB2" stroke="#D5BFB2" stroke-width="0.25" stroke-linecap="round" stroke-linejoin="round"/>
<path d="M21.5748 31.1143L16.2891 29.5714L20.0319 27.8572L21.5891 31.1143H21.5748ZM29.3033 31.1143L30.8748 27.8429L34.6319 29.5572L29.3033 31.1286V31.1143Z" fill="#233447" stroke="#233447" stroke-width="0.25" stroke-linecap="round" stroke-linejoin="round"/>
<path d="M15.5261 41.2427L16.4547 33.6141L10.5547 33.7856L15.5261 41.2427ZM34.4261 33.6141L35.3261 41.2427L40.3261 33.7856L34.4261 33.6141ZM38.8976 25.2141L28.3261 25.6999L29.2976 31.1284L30.869 27.8427L34.6261 29.557L38.8976 25.2141ZM16.2833 29.5713L20.0261 27.857L21.5833 31.1141L22.569 25.6856L11.9975 25.2141L16.2833 29.5713Z" fill="#CC6228" stroke="#CC6228" stroke-width="0.25" stroke-linecap="round" stroke-linejoin="round"/>
<path d="M12 25.2141L16.4286 33.857L16.2857 29.5713L12 25.2141ZM34.6286 29.5713L34.4571 33.857L38.8857 25.2141L34.6286 29.5713ZM22.5714 25.6999L21.5714 31.1284L22.8286 37.5284L23.1143 29.0856L22.5714 25.6999ZM28.3143 25.6999L27.8 29.0713L28.0571 37.5284L29.3 31.1141L28.3143 25.6856V25.6999Z" fill="#E27525" stroke="#E27525" stroke-width="0.25" stroke-linecap="round" stroke-linejoin="round"/>
<path d="M29.302 31.1143L28.0592 37.5286L28.9592 38.157L34.4592 33.8713L34.6306 29.5714L29.302 31.1143ZM16.2877 29.5714L16.4306 33.8572L21.9449 38.1429L22.8306 37.5286L21.5877 31.1143L16.2734 29.5714H16.2877Z" fill="#F5841F" stroke="#F5841F" stroke-width="0.25" stroke-linecap="round" stroke-linejoin="round"/>
<path d="M29.4312 44.0573L29.4741 42.3002L28.9884 41.9002H21.9027L21.4313 42.3002L21.4741 44.0573L15.5312 41.243L17.617 42.9573L21.8312 45.8573H29.0455L33.2741 42.943L35.3313 41.243L29.417 44.0573H29.4312Z" fill="#C0AC9D" stroke="#C0AC9D" stroke-width="0.25" stroke-linecap="round" stroke-linejoin="round"/>
<path d="M28.9583 38.1429L28.0583 37.5286H22.8297L21.944 38.1571L21.4297 42.3L21.9011 41.9H28.9868L29.4725 42.3L28.9583 38.1571V38.1429Z" fill="#161616" stroke="#161616" stroke-width="0.25" stroke-linecap="round" stroke-linejoin="round"/>
<path d="M47.8868 16.2143L49.4583 8.57142L47.0868 1.42856L28.944 14.8571L35.9297 20.7286L45.7868 23.6L47.9583 21.0714L47.0154 20.3857L48.5154 19.0143L47.3725 18.1286L48.8725 16.9857L47.8725 16.2143H47.8868ZM1.42969 8.55713L3.02969 16.2143L2.00112 16.9714L3.52969 18.1143L2.38683 19.0143L3.87254 20.3857L2.92969 21.0714L5.10112 23.6L14.9583 20.7428L21.944 14.8428L3.80112 1.42856L1.42969 8.55713Z" fill="#763E1A" stroke="#763E1A" stroke-width="0.25" stroke-linecap="round" stroke-linejoin="round"/>
<path d="M45.7839 23.6L35.9268 20.7429L38.8982 25.2143L34.4696 33.8572L40.3268 33.7857H49.0839L45.7839 23.6ZM14.9553 20.7286L5.09821 23.6L1.8125 33.7857H10.5696L16.4268 33.8572L11.9982 25.2143L14.9696 20.7286H14.9553ZM28.3125 25.7L28.9553 14.8429L31.8125 7.12857H19.0696L21.9268 14.8429L22.5696 25.7L22.8125 29.1V37.5286H28.0553L28.0839 29.1L28.3125 25.7Z" fill="#F5841F" stroke="#F5841F" stroke-width="0.25" stroke-linecap="round" stroke-linejoin="round"/>
</svg>

<svg xmlns="http://www.w3.org/2000/svg" width="66.667" height="64" fill="none" viewBox="0 0 50 48"><path fill="#E17726" stroke="#E17726" stroke-linecap="round" stroke-linejoin="round" stroke-width=".25" d="M47.084 1.429 28.312 15.314l3.5-8.185 15.272-5.7Z"/><path fill="#E27625" stroke="#E27625" stroke-linecap="round" stroke-linejoin="round" stroke-width=".25" d="m3.798 1.429 18.6 14-3.328-8.286L3.798 1.429Zm36.529 32.185-5 7.629 10.7 2.943 3.057-10.4-8.757-.172Zm-38.514.172 3.042 10.4 10.672-2.943-4.972-7.629-8.742.172Z"/><path fill="#E27625" stroke="#E27625" stroke-linecap="round" stroke-linejoin="round" stroke-width=".25" d="m14.956 20.728-2.972 4.486 10.572.486-.343-11.386-7.257 6.429v-.015Zm20.971.015-7.371-6.572-.243 11.529 10.571-.486-2.957-4.471Zm-20.4 20.5 6.415-3.086-5.515-4.286-.9 7.372Zm13.429-3.1 6.371 3.1-.857-7.386-5.514 4.286Z"/><path fill="#D5BFB2" stroke="#D5BFB2" stroke-linecap="round" stroke-linejoin="round" stroke-width=".25" d="m35.331 41.243-6.371-3.086.514 4.143-.057 1.757 5.914-2.814Zm-19.8 0 5.943 2.814-.043-1.757.514-4.143-6.414 3.086Z"/><path fill="#233447" stroke="#233447" stroke-linecap="round" stroke-linejoin="round" stroke-width=".25" d="m21.575 31.114-5.286-1.543 3.743-1.714 1.557 3.257h-.014Zm7.728 0 1.572-3.271 3.757 1.714-5.329 1.572v-.015Z"/><path fill="#CC6228" stroke="#CC6228" stroke-linecap="round" stroke-linejoin="round" stroke-width=".25" d="m15.526 41.243.929-7.629-5.9.172 4.971 7.457Zm18.9-7.629.9 7.629 5-7.457-5.9-.172Zm4.472-8.4-10.572.486.972 5.428 1.571-3.285 3.757 1.714 4.272-4.343Zm-22.615 4.357 3.743-1.714 1.557 3.257.986-5.428-10.571-.472 4.285 4.357Z"/><path fill="#E27525" stroke="#E27525" stroke-linecap="round" stroke-linejoin="round" stroke-width=".25" d="m12 25.214 4.429 8.643-.143-4.286L12 25.214Zm22.629 4.357-.172 4.286 4.429-8.643-4.257 4.357ZM22.57 25.7l-1 5.428 1.258 6.4.285-8.442-.543-3.386Zm5.743 0L27.8 29.07l.257 8.457 1.243-6.414-.986-5.428v.014Z"/><path fill="#F5841F" stroke="#F5841F" stroke-linecap="round" stroke-linejoin="round" stroke-width=".25" d="m29.302 31.114-1.243 6.415.9.628 5.5-4.286.172-4.3-5.329 1.543Zm-13.014-1.543.143 4.286 5.514 4.286.886-.614-1.243-6.415-5.315-1.543h.015Z"/><path fill="#C0AC9D" stroke="#C0AC9D" stroke-linecap="round" stroke-linejoin="round" stroke-width=".25" d="m29.431 44.057.043-1.757-.486-.4h-7.085l-.472.4.043 1.757-5.943-2.814 2.086 1.714 4.214 2.9h7.215l4.228-2.914 2.057-1.7-5.914 2.814h.014Z"/><path fill="#161616" stroke="#161616" stroke-linecap="round" stroke-linejoin="round" stroke-width=".25" d="m28.958 38.143-.9-.614H22.83l-.886.628-.514 4.143.471-.4h7.086l.486.4-.515-4.143v-.014Z"/><path fill="#763E1A" stroke="#763E1A" stroke-linecap="round" stroke-linejoin="round" stroke-width=".25" d="m47.887 16.214 1.571-7.643-2.371-7.142-18.143 13.428 6.986 5.872 9.857 2.871 2.171-2.529-.943-.685 1.5-1.372-1.142-.885 1.5-1.143-1-.772h.014ZM1.43 8.557l1.6 7.657L2 16.971l1.529 1.143-1.143.9 1.486 1.372-.943.685L5.1 23.6l9.857-2.857 6.986-5.9L3.801 1.429 1.43 8.557Z"/><path fill="#F5841F" stroke="#F5841F" stroke-linecap="round" stroke-linejoin="round" stroke-width=".25" d="m45.784 23.6-9.857-2.857 2.971 4.471-4.428 8.643 5.857-.071h8.757l-3.3-10.186Zm-30.829-2.871L5.098 23.6 1.813 33.786h8.757l5.857.071-4.429-8.643 2.972-4.485h-.015ZM28.312 25.7l.643-10.857 2.858-7.714H19.07l2.857 7.714.643 10.857.242 3.4v8.429h5.243l.029-8.429.229-3.4Z"/></svg>
